.dev/src/assets/icons/setting.svg

<?xml version="1.0" standalone="no"?><!DOCTYPE svg PUBLIC "-//W3C//DTD SVG 1.1//EN" "http://www.w3.org/Graphics/SVG/1.1/DTD/svg11.dtd"><svg t="1755961334014" class="icon" viewBox="0 0 1024 1024" version="1.1" xmlns="http://www.w3.org/2000/svg" p-id="41145" xmlns:xlink="http://www.w3.org/1999/xlink" width="200" height="200"><path d="M864.64 586.23c-31.78-43.41-31.78-102.4 0-145.81 60.52-82.67-0.25-196.38-98.72-196.38-4.65 0-9.4 0.25-14.21 0.78-4.49 0.49-8.96 0.73-13.4 0.73-48.45 0-93-28.54-112.88-73.63-21.64-49.08-67.29-73.63-112.93-73.63s-91.29 24.54-112.93 73.63c-19.88 45.1-64.42 73.63-112.88 73.63-4.44 0-8.91-0.24-13.4-0.73-4.82-0.52-9.55-0.78-14.21-0.78-98.46 0-159.23 113.72-98.72 196.38 31.78 43.41 31.78 102.4 0 145.81-60.52 82.67 0.25 196.38 98.72 196.38 4.65 0 9.4-0.25 14.21-0.78 4.49-0.49 8.96-0.73 13.4-0.73 48.45 0 93 28.54 112.88 73.63 21.64 49.08 67.29 73.63 112.93 73.63s91.29-24.54 112.93-73.63c19.88-45.1 64.42-73.63 112.88-73.63 4.44 0 8.91 0.24 13.4 0.73 4.82 0.52 9.55 0.78 14.21 0.78 98.46 0 159.23-113.72 98.72-196.38z m-74.98-16.57a183.136 183.136 0 0 0 26.56 52.01c20.76 28.36 10.75 55.58 5.48 65.97-5.29 10.43-13.11 19.19-22.6 25.34-9.88 6.39-21.05 9.63-33.19 9.63-2.53 0-5.12-0.14-7.72-0.43a183.5 183.5 0 0 0-19.88-1.08c-72.61 0-138.47 42.95-167.78 109.42-5.42 12.29-13.54 21.85-24.15 28.41-9.96 6.16-21.67 9.42-33.88 9.42s-23.93-3.26-33.88-9.42c-10.6-6.57-18.73-16.12-24.15-28.41-29.31-66.47-95.17-109.42-167.78-109.42-6.61 0-13.3 0.36-19.88 1.08-2.6 0.28-5.2 0.43-7.72 0.43-12.14 0-23.31-3.24-33.2-9.63-9.49-6.14-17.31-14.9-22.6-25.33-5.27-10.39-15.28-37.6 5.49-65.97a183.142 183.142 0 0 0 26.56-52.01c5.88-18.22 8.86-37.17 8.86-56.33 0-19.16-2.98-38.12-8.86-56.33A183.136 183.136 0 0 0 208.78 405c-20.76-28.36-10.75-55.58-5.48-65.97 5.29-10.43 13.11-19.19 22.6-25.34 9.88-6.39 21.05-9.63 33.19-9.63 2.53 0 5.12 0.14 7.72 0.43a183.5 183.5 0 0 0 19.88 1.08c72.61 0 138.47-42.95 167.78-109.42 5.42-12.29 13.54-21.85 24.15-28.41 9.96-6.16 21.67-9.42 33.88-9.42s23.93 3.26 33.88 9.42c10.61 6.57 18.73 16.12 24.15 28.41 29.31 66.47 95.17 109.42 167.78 109.42 6.61 0 13.3-0.36 19.88-1.08 2.6-0.28 5.2-0.43 7.72-0.43 12.14 0 23.31 3.24 33.2 9.63 9.49 6.14 17.31 14.9 22.6 25.33 5.27 10.39 15.28 37.6-5.49 65.97A183.142 183.142 0 0 0 789.66 457a183.135 183.135 0 0 0-8.86 56.33c0 19.16 2.98 38.11 8.86 56.33z" p-id="41146" fill="#0f172b"></path><path d="M512.5 365.54c-81.16 0-146.96 65.8-146.96 146.96s65.8 146.96 146.96 146.96 146.96-65.8 146.96-146.96-65.8-146.96-146.96-146.96z m0 233.92c-47.95 0-86.96-39.01-86.96-86.96s39.01-86.96 86.96-86.96 86.96 39.01 86.96 86.96-39.01 86.96-86.96 86.96z" p-id="41147" fill="#0f172b"></path></svg>

<svg width="1024" height="1024" viewBox="0 0 1024 1024" fill="none" xmlns="http://www.w3.org/2000/svg">
<path d="M864.64 586.23C832.86 542.82 832.86 483.83 864.64 440.42C925.16 357.75 864.39 244.04 765.92 244.04C761.27 244.04 756.52 244.29 751.71 244.82C747.22 245.31 742.75 245.55 738.31 245.55C689.86 245.55 645.31 217.01 625.43 171.92C603.79 122.84 558.14 98.29 512.5 98.29C466.86 98.29 421.21 122.83 399.57 171.92C379.69 217.02 335.15 245.55 286.69 245.55C282.25 245.55 277.78 245.31 273.29 244.82C268.47 244.3 263.74 244.04 259.08 244.04C160.62 244.04 99.8501 357.76 160.36 440.42C192.14 483.83 192.14 542.82 160.36 586.23C99.8401 668.9 160.61 782.61 259.08 782.61C263.73 782.61 268.48 782.36 273.29 781.83C277.78 781.34 282.25 781.1 286.69 781.1C335.14 781.1 379.69 809.64 399.57 854.73C421.21 903.81 466.86 928.36 512.5 928.36C558.14 928.36 603.79 903.82 625.43 854.73C645.31 809.63 689.85 781.1 738.31 781.1C742.75 781.1 747.22 781.34 751.71 781.83C756.53 782.35 761.26 782.61 765.92 782.61C864.38 782.61 925.15 668.89 864.64 586.23ZM789.66 569.66C795.674 588.306 804.642 605.866 816.22 621.67C836.98 650.03 826.97 677.25 821.7 687.64C816.41 698.07 808.59 706.83 799.1 712.98C789.22 719.37 778.05 722.61 765.91 722.61C763.38 722.61 760.79 722.47 758.19 722.18C751.588 721.461 744.951 721.1 738.31 721.1C665.7 721.1 599.84 764.05 570.53 830.52C565.11 842.81 556.99 852.37 546.38 858.93C536.42 865.09 524.71 868.35 512.5 868.35C500.29 868.35 488.57 865.09 478.62 858.93C468.02 852.36 459.89 842.81 454.47 830.52C425.16 764.05 359.3 721.1 286.69 721.1C280.08 721.1 273.39 721.46 266.81 722.18C264.21 722.46 261.61 722.61 259.09 722.61C246.95 722.61 235.78 719.37 225.89 712.98C216.4 706.84 208.58 698.08 203.29 687.65C198.02 677.26 188.01 650.05 208.78 621.68C220.358 605.876 229.326 588.316 235.34 569.67C241.22 551.45 244.2 532.5 244.2 513.34C244.2 494.18 241.22 475.22 235.34 457.01C229.326 438.364 220.358 420.804 208.78 405C188.02 376.64 198.03 349.42 203.3 339.03C208.59 328.6 216.41 319.84 225.9 313.69C235.78 307.3 246.95 304.06 259.09 304.06C261.62 304.06 264.21 304.2 266.81 304.49C273.412 305.21 280.049 305.57 286.69 305.57C359.3 305.57 425.16 262.62 454.47 196.15C459.89 183.86 468.01 174.3 478.62 167.74C488.58 161.58 500.29 158.32 512.5 158.32C524.71 158.32 536.43 161.58 546.38 167.74C556.99 174.31 565.11 183.86 570.53 196.15C599.84 262.62 665.7 305.57 738.31 305.57C744.92 305.57 751.61 305.21 758.19 304.49C760.79 304.21 763.39 304.06 765.91 304.06C778.05 304.06 789.22 307.3 799.11 313.69C808.6 319.83 816.42 328.59 821.71 339.02C826.98 349.41 836.99 376.62 816.22 404.99C804.642 420.794 795.674 438.354 789.66 457C783.784 475.199 780.794 494.206 780.8 513.33C780.8 532.49 783.78 551.44 789.66 569.66Z" fill="#0F172B"/>
<path d="M512.5 365.54C431.34 365.54 365.54 431.34 365.54 512.5C365.54 593.66 431.34 659.46 512.5 659.46C593.66 659.46 659.46 593.66 659.46 512.5C659.46 431.34 593.66 365.54 512.5 365.54ZM512.5 599.46C464.55 599.46 425.54 560.45 425.54 512.5C425.54 464.55 464.55 425.54 512.5 425.54C560.45 425.54 599.46 464.55 599.46 512.5C599.46 560.45 560.45 599.46 512.5 599.46Z" fill="#0F172B"/>
</svg>
